X:1
T:12 German Dances
T:12 German Dances
T:D. 420 No. 8 in D Major 
T:Franz Schubert
C:Franz Schubert
%%score { 1 | 2 }
L:1/8
Q:1/4=120
M:3/4
K:D
V:1 treble nm="Piano" snm="Pno."
V:2 bass 
V:1
!f! [FA]>[FA] | [FA]2 [Ad]2 ([Ac]2 | e2) ([EG]4 | [DF]2) [DGB]2 [Beg]2 | [Ace]4 [Ff][Ff] | %5
 [Ff]2 [Aa]2 [^G^g]2 | [Bb]2 [Aa]4 | (=gfedce | d4) ::!ff! [Ff]>[Ff] | [Ff]2 [FBf]2 [F^Af]2 | %11
 [Fdf]2 [Fcf]2 [Aa]>[Aa] | [Aa]2 [Ada]2 [Aca]2 | [Afa]2 [Aea]2 [FA]>[FA] | [FA]2 [Ad]2 ([Gc]2 | %15
 e2) ([EG]4 | [DF])A [DF]2 [CE]2 | D4 :| %18
V:2
 [D,D]>[D,D] | [D,D]2 [F,D]2 [A,E]2 | [A,,C,A,]2 [A,,C,A,]4 | [B,,F,B,]2 [G,,G,]2 [E,,E,]2 | %4
 [A,,A,]4 [D,A,D][D,A,D] | [D,A,D]2 [D,F,D]2 [D,^E,D]2 | [D,G,D]2 [D,F,D]4 | %7
 [A,,A,]2 [A,EG]2 [A,EG]2 | [DF]4 :: [F,,F,]>[F,,F,] | [F,,F,]2 [F,D]2 [F,C]2 | %11
 [F,B,]2 [F,^A,]2 [=A,,=A,]>[A,,A,] | [A,,A,]2 [A,F]2 [A,E]2 | [A,D]2 [A,C]2 [D,D]>[D,D] | %14
 [D,D]2 [F,D]2 [A,E]2 | [A,,C,A,]2 [A,,C,A,]4 | D,F, A,2 [A,,G,]2 | [D,F,]4 :| %18

